icon-themes/breeze_svg/cmd/lc_flowchartshapes.flowchart-terminator.svg

<svg viewBox="0 0 24 24" xmlns="http://www.w3.org/2000/svg"><path d="m8 4c-2.209139 0-4 3.5817-4 8s1.790861 8 4 8h2 5 1c2.209139 0 4-3.581722 4-8s-1.790861-8-4-8h-1-5z" fill="#4d4d4d"/></svg>

<svg xmlns="http://www.w3.org/2000/svg" viewBox="0 0 24 24">
 <path 
     style="fill:#4d4d4d" 
     d="M 8 4 C 5.790861 4 4 7.5817 4 12 C 4 16.4183 5.790861 20 8 20 L 10 20 L 15 20 L 16 20 C 18.209139 20 20 16.418278 20 12 C 20 7.581722 18.209139 4 16 4 L 15 4 L 10 4 L 8 4 z "
     />
 </svg>
